!!!COM: Mozart, Wolfgang Amadeus
!!!OTL: String Quartet No. 15 in D Minor
!!!OMD: Allegro moderato
!!!OMV: 1
!!!SCT1: K<sup>1</sup> 421
!!!SCA: Chronologisch-thematisches Verzeichnis sämtlicher Tonwerke Wolfgang Amade Mozarts (L. von Köchel; 1862, 2/1905, 3/1937, 1947)
!!!SCT2: K<sup>6</sup> 417b
!!!YOR: Breitkopf & Härtel Edition
!!!ENC: Frances Bennion
!!!CDT: 1756/1/27/-1791/12/5/
!!!OCY: Österreich
!!!YEC: Copyright (c) 1994, 2000 Center for Computer Assisted Research in the Humanities
!!!YEM: Rights to all derivative editions reserved.
!!!YEM: Refer to licensing agreement for further details.
!!!YEN: United States of America
**kern	**kern	**kern	**kern
*k[b-]	*k[b-]	*k[b-]	*k[b-]
*d:	*d:	*d:	*d:
*clefC	*clefF	*clefG	*clefG
*M4/4	*M4/4	*M4/4	*M4/4
2D	8r	8r	2dd
.	8F	8A	.
.	8F	8A	.
.	8F	8A	.
2C	8r	8r	4.d
.	8F	8A	.
.	8F	8A	.
.	8F	8A	8d
=2	=2	=2	=2
2BB-	8r	8r	8.d
.	8F	8B-	.
.	.	.	16c#
.	8F	8B-	8d
.	8F	8B-	8d
2AA	8r	8r	4.d
.	8A	8f	.
.	8A	8f	.
.	8A	8d	8ff
=3	=3	=3	=3
2GG	8r	8r	[6..ff
.	8B-	8d	.
.	8B-	8c#	.
.	.	.	48ff]
.	.	.	16ee
.	8B-	8e	16dd
.	.	.	16cc#
2AA	8r	8r	4b-
.	8E	8c#	.
.	8E	8c#	8a
.	8E	8c#	8g
=4	=4	=4	=4
4DD	4D	8d	8f
.	.	8g	8b-
2.r	4.r	8f	8a
.	.	8e	8g#
.	.	8f	4a
.	8e	8g	.
.	8d	8f	4r
.	8c#	8e	.
=5	=5	=5	=5
8r	8d	8d	2ddd
8d	8f	8a	.
8d	8f	8a	.
8d	8f	8a	.
8r	8r	8r	4.dd
8c	8f#	8a	.
8c	8f#	8a	.
8c	8f#	8a	8dd
=6	=6	=6	=6
8r	8r	8r	8.dd
8B	8g	8d	.
.	.	.	16cc#
8B	8g	8d	8dd
8B	8g	8d	8dd
8r	8r	8r	4.dd
8B-	8g#	8ff	.
8B-	8g#	8ff	.
8B-	8g#	8dd	8fff
=7	=7	=7	=7
2A	4g#	[6..dd	[6..fff
.	4a	.	.
.	.	48dd]	48fff]
.	.	16cc#	16eee
.	.	16ff	16ddd
.	.	16ee	16ccc#
2r	8r	4gg	4bb-
.	8A	.	.
.	8B	8ff	8aa
.	8c#	8ee	[8gg
=8	=8	=8	=8
3..r	8d	8a	16gg]
.	.	.	16ff
.	8G	16b-	16ee
.	.	16g	16bb-
.	8A	16g	16bb-
.	.	16f	16aa
.	8A	16e	16cc#
.	.	16g	16ee
.	4d	4f	4dd
24r	.	.	.
8A	.	.	.
8F	4r	4r	4r
8D	.	.	.
=9	=9	=9	=9
8AA	4.r	4.A	4.A
8A	.	.	.
8A	.	.	.
8A	8f	8dd	8aa
8A	8.e	4dd	8.gg
8A	.	.	.
.	16f	.	16aa
8A	8g	8cc#	8bb-
8A	8g	8b-	8cc#
=10	=10	=10	=10
8A	8f	8a	8dd
8c#	8e	8a	8ee
8d	8d	8ee	8gg
8G#	4r	8dd	8ff
8A	.	4cc#	4ee
4.r	16a	.	.
.	16g#	.	.
.	16a	4r	4r
.	16g#	.	.
.	16a	.	.
.	16g#	.	.
=11	=11	=11	=11
8AA	4.a	4.A	4.A
8A	.	.	.
8A	.	.	.
8A	8f	8aa	8ddd
8A	8.e	8.gg	4ddd
8A	.	.	.
.	16f	16aa	.
8A	8g	8bb-	8ccc#
8A	8g	8cc#	8bb-
=12	=12	=12	=12
8A	8f	8dd	8aa
8c#	4a	8ee	8gg
8d	.	8ee	8gg
8G#	8b	8dd	8ff
4A	4e	4cc#	16ee
.	.	.	16gg#
.	.	.	16aa
.	.	.	16gg#
4r	4r	8r	16aa
.	.	.	16gg#
.	.	16ff	16aa
.	.	16dd	16ff
=13	=13	=13	=13
2..r	4.r	16cc#	8ee
.	.	16g#	.
.	.	16a	2..r
.	.	16g#	.
.	.	16a	.
.	.	16g#	.
.	16f	16a	.
.	16d	16f	.
.	16c#	8e	.
.	16G#	.	.
.	16A	4.r	.
.	16G#	.	.
.	16A	.	.
.	16G#	.	.
16F	16A	.	.
16D	16F	.	.
=14	=14	=14	=14
16C#	8E	2r	2r
16GG#	.	.	.
16AA	4.r	.	.
16GG#	.	.	.
16AA	.	.	.
16GG#	.	.	.
16AA	.	.	.
16FF	.	.	.
4.EE	4.c 4.C	4.gg 4.cc 4.e	4.bb- 4.cc 4.e
8E	8G	8B-	8c
=15	=15	=15	=15
8E-	8F	8B-	8c
8E-	8F	8A	8c
8r	8r	8r	8r
8D	8F	8B-	8d
4AA	4F	8B	8d
.	.	8c	8e-
8r	8r	8r	8r
8A	8c	8e-	[8f
=16	=16	=16	=16
8B-	8B-	4d	8f]
8A	8c	.	8f#
8G	8B-	8e	8g
8F	8A	8f	8a
4E	4G	4c	8cc
.	.	.	8b-
8r	8r	8r	8r
8E	8c	8g	8b-
=17	=17	=17	=17
4F	[3..f	8f	8a
.	.	4g	4b-
4F	.	.	.
.	.	4g#	4b
4F	.	.	.
.	24f]	.	.
.	8f	4a	4cc
4F	8e	.	.
.	8e-	[8a	[8cc#
=18	=18	=18	=18
4BB-	4d	4a]	4cc#]
8r	8r	16cc	16ee
.	.	16b-	16dd
8BB-	16G	16a	16cc
.	16d	16g	16b-
4C	4c	4f	4a
8.c	4r	8e	8g
.	.	8r	8r
16B	.	.	.
=19	=19	=19	=19
4..B	2.r	4r	4r
.	.	4f	8dd
.	.	.	8g
32A	.	.	.
32B	.	.	.
4c	.	8.e	8.g
.	.	16f	16a
4r	8.C	8e	8g
.	.	8r	8r
.	16D-	.	.
=20	=20	=20	=20
3..r	4..D-	4r	4r
.	.	8a-	8ff
.	.	8f	8b
.	32C	.	.
.	32D-	.	.
.	4C	4f	4b
24r	.	.	.
8C	.	.	.
8c	4r	8e	8cc
8B-	.	8r	8r
=21	=21	=21	=21
4B-	2r	2.c	8r
.	.	.	8f
4A	.	.	8ff
.	.	.	8ee-
8r	[2f	.	4ee-
8BB-	.	.	.
8B-	.	8B-	8dd-
8A-	.	8c	8cc
=22	=22	=22	=22
2G	8f]	[3..d	4cc
.	8G	.	.
.	8g	.	4b
.	8f	.	.
[2C	4f	.	[2b-
.	.	24d]	.
.	.	8g	.
.	8e	8gg	.
.	[8d	8ff	.
=23	=23	=23	=23
4..C]	8d]	4ff	8b-]
.	8c	.	8gg
.	8a	8ee	8ccc
.	8g	8cc	8bb-
32D	.	.	.
32E	.	.	.
8F	8f	8cc	32gg#
.	.	.	32aa
.	.	.	16r
8r	8r	8r	32ee
.	.	.	32ff
.	.	.	16r
8BB-	8f	8g	32cc#
.	.	.	32dd
.	.	.	16r
8r	8r	8r	32f#
.	.	.	32g
.	.	.	16r
=24	=24	=24	=24
8AA	8c	8f	8.cc
8BB-	8B-	8d	.
.	.	.	16dd
8C	8A	8c	8f
8C	8G	8B-	8e
4FF	16r	16r	4f
.	16F	16A	.
.	16A	16f	.
.	16A	16f	.
4r	16A	16f	4r
.	16A	16f	.
.	16A	16f	.
.	16A	16f	.
=25	=25	=25	=25
4AA	16r	16r	4f
.	16A	16c	.
.	16c	16f	.
.	16c	16f	.
4r	16c	16f	16e
.	16c	16f	16f
.	16c	16f	16b-
.	16c	16f	16a
4BB-	16r	16r	8a
.	16G	16d	.
.	16d	16f	8g
.	16d	16f	.
4r	16d	16f	4r
.	16d	16f	.
.	16d	16f	.
.	16d	16f	.
=26	=26	=26	=26
4C	16r	16r	16f#
.	16G	16B-	16g
.	16B-	16e	16a
.	16B-	16e	16g
4r	16B-	16e	16b-
.	16B-	16e	16a
.	16B-	16e	16dd
.	16B-	16e	16cc
4D	16r	16r	8b-
.	16F	16A	.
.	16A	16f	8a
.	16A	16f	.
4r	16A	16f	4r
.	16A	16f	.
.	16A	16f	.
.	16A	16f	.
=27	=27	=27	=27
4AA	16r	16r	4ff
.	16A	16c	.
.	16c	16f	.
.	16c	16f	.
4r	16c	16f	16ee
.	16c	16f	16ff
.	16c	16f	16bb-
.	16c	16f	16aa
4BB-	16r	16r	8aa
.	16G	16d	.
.	16d	16f	8.gg
.	16d	16f	.
4r	16d	16f	.
.	16d	16f	16ff
.	16d	16f	16ee
.	16d	16f	16dd
=28	=28	=28	=28
4C	16r	16r	8dd
.	16G	16B-	.
.	16B-	16e	8.cc
.	16B-	16e	.
4r	16B-	16e	.
.	16B-	16e	16b-
.	16B-	16e	16a
.	16B-	16e	16g
4F	16A	16f	4f
.	16f	16a	.
.	16e	16g	.
.	16d	16f	.
4r	16c#	16e	4r
.	16d	16f	.
.	16c	16e	.
.	16B-	16d	.
=29	=29	=29	=29
4AA	16A	8c	6f
.	16c	.	.
.	16f	8c	.
.	.	.	24e
.	16c	.	.
.	.	.	24f
4r	16A	8f	24a
.	.	.	24g
.	16c	.	.
.	.	.	24f
.	16f	8c	24cc
.	.	.	24b-
.	16c	.	.
.	.	.	24a
4BB-	16G	8r	8f#
.	16d	.	.
.	16f	8d	8g
.	16d	.	.
4r	16G	8dd	4r
.	16d	.	.
.	16f	8g	.
.	16d	.	.
=30	=30	=30	=30
4C	16G	8r	24bb-
.	.	.	24aa
.	16c	.	.
.	.	.	24gg
.	16e	8c	24ff
.	.	.	24ee
.	16c	.	.
.	.	.	24dd
4r	16G	8b-	24cc
.	.	.	24b
.	16c	.	.
.	.	.	24cc
.	16e	8g	24cc#
.	.	.	24dd
.	16c	.	.
.	.	.	24b-
4D	16F	8r	8g#
.	16A	.	.
.	16f	8d	8a
.	16A	.	.
4r	16F	8dd	4r
.	16A	.	.
.	16f	8a	.
.	16A	.	.
=31	=31	=31	=31
4AA	16A	8r	24f
.	.	.	24a
.	16c	.	.
.	.	.	24cc
.	16f	8c	24ff
.	.	.	24aa
.	16c	.	.
.	.	.	24ccc
4r	16A	8cc	24fff
.	.	.	24eee
.	16c	.	.
.	.	.	24ddd
.	16f	8a	24ccc
.	.	.	24bb-
.	16c	.	.
.	.	.	24aa
4BB-	16G	8r	24gg
.	.	.	24aa
.	16d	.	.
.	.	.	24ff#
.	16f	8f	24gg
.	.	.	24bb-
.	16d	.	.
.	.	.	24aa
4r	16G	8dd	24bb-
.	.	.	24aa
.	16d	.	.
.	.	.	24gg
.	16f	8b-	24ff
.	.	.	24ee
.	16d	.	.
.	.	.	24dd
=32	=32	=32	=32
8r	8f	8a	24cc
.	.	.	24dd
.	.	.	24b
8AA	8c	4f	24cc
.	.	.	24ff
.	.	.	24f
8BB-	8d	.	8.g
8C	16c	8e	.
.	16B-	.	32f
.	.	.	32g
8F	2A	4f	4f
4E-	.	.	.
.	.	4f#	4r
16.D	.	.	.
32C	.	.	.
=33	=33	=33	=33
8BB-	8d	8g	1r
8AA	8f#	8a	.
8GG	8g	8b-	.
8FF	8a	8cc	.
8r	16a	16cc#	.
.	16b-	16dd	.
8BB-	16d	16b-	.
.	16B-	16g	.
4C	8A	8f	.
.	8G	8e	.
=34	=34	=34	=34
8F	8A	4f	4ff
4e-	4cc	.	.
.	.	4f#	4ff#
16.d	16.b-	.	.
32c	32a	.	.
8B-	8dd	8g	8gg
8A	8f#	8a	8aa
8G	8g	8b-	8bb-
8F	8a	8cc	8ccc
=35	=35	=35	=35
8r	16a	16cc#	16ccc#
.	16b-	16dd	16ddd
8BB-	16d	16b-	16bb-
.	16B-	16g	16gg
4C	8A	8f	8ff
.	8G	8e	8ee
8FF	8A	24f	8ff
.	.	24a	.
.	.	24cc	.
4.r	8r	24cc	8r
.	.	24cc	.
.	.	24cc	.
.	8b-	24cc	8ee
.	.	24cc	.
.	.	24cc	.
.	8b-	24cc	8ee
.	.	24cc	.
.	.	24cc	.
=36	=36	=36	=36
1r	8a	24cc	8ff
.	.	24cc	.
.	.	24cc	.
.	8a	24cc	8ff
.	.	24cc	.
.	.	24cc	.
.	8e	24cc	8gg
.	.	24cc	.
.	.	24cc	.
.	8e	24cc	8gg
.	.	24cc	.
.	.	24cc	.
.	8f	24cc	8aa
.	.	24ff	.
.	.	24ff	.
.	8d	24ff	8bb-
.	.	24ff	.
.	.	24ff	.
.	8A	24ff	8ccc
.	.	24ff	.
.	.	24ff	.
.	8B-	24ff	8ddd
.	.	24ff	.
.	.	24ff	.
=37	=37	=37	=37
2.r	8A	24ff	16ddd
.	.	24ff	.
.	.	.	16ccc
.	.	24ff	.
.	8d	24ff	16bb-
.	.	24ff	.
.	.	.	16aa
.	.	24ff	.
.	8c	24ff	8aa
.	.	24gg	.
.	.	24ff	.
.	8C	24ee	8gg
.	.	24dd	.
.	.	24ee	.
.	24F	8ff	4ff
.	24A	.	.
.	24c	.	.
.	24c	8r	.
.	24c	.	.
.	24c	.	.
8B-	24c	8e	4r
.	24c	.	.
.	24c	.	.
8B-	24c	8e	.
.	24c	.	.
.	24c	.	.
=38	=38	=38	=38
8A	24c	8f	1r
.	24c	.	.
.	24c	.	.
8A	24c	8f	.
.	24c	.	.
.	24c	.	.
8E	24c	8g	.
.	24c	.	.
.	24c	.	.
8E	24c	8g	.
.	24c	.	.
.	24c	.	.
8F	24c	8a	.
.	24f	.	.
.	24f	.	.
8D	24f	8b-	.
.	24f	.	.
.	24f	.	.
8AA	24f	8cc	.
.	24f	.	.
.	24f	.	.
8BB-	24f	8dd	.
.	24f	.	.
.	24f	.	.
=39	=39	=39	=39
8AA	24f	16dd	2r
.	24f	.	.
.	.	16cc	.
.	24f	.	.
8D	24f	16b-	.
.	24f	.	.
.	.	16a	.
.	24f	.	.
8C	24f	8a	.
.	24g	.	.
.	24f	.	.
8CC	24e	8g	.
.	24d	.	.
.	24e	.	.
4FF	4f	4f	24r
.	.	.	24ff
.	.	.	24aa
.	.	.	24ccc
.	.	.	24ccc
.	.	.	24ccc
8r	8r	8r	8ccc
8c	16.g	16.bb-	8r
.	32e	32gg	.
=40	=40	=40	=40
4F	4f	4ff	24r
.	.	.	24f
.	.	.	24a
.	.	.	24cc
.	.	.	24cc
.	.	.	24cc
8r	8r	8r	8cc
8C	16.G	16.b-	6r
.	32E	32g	.
4.FF	8F	8f	.
.	.	.	24c
.	.	.	24f
.	8F	8c	24a
.	.	.	24a
.	.	.	24a
.	8F	8c	8a
8F	8r	8r	8r
=41a	=41a	=41a	=41a
4.F	8r	8r	24r
.	.	.	24d
.	.	.	24g#
.	8d	8g#	24b
.	.	.	24b
.	.	.	24b
.	8d	8g#	8b
8E	8r	8r	6r
4.E	8r	8r	.
.	.	.	24e
.	.	.	24g
.	8B-	8g	24cc#
.	.	.	24cc#
.	.	.	24cc#
.	8A	8g	8cc#
8A	8r	8r	8r
=41b	=41b	=41b	=41b
4.F	8r	8r	24r
.	.	.	24d
.	.	.	24a-
.	8d	8a-	24b
.	.	.	24b
.	.	.	24b
.	8d	4.a-	8b
8D	8f	.	6r
4.D	8f	.	.
.	.	.	24B-
.	.	.	24f
.	8B-	8f	24a-
.	.	.	24a-
.	.	.	24a-
.	8B-	8f	8a-
8BB-	8A-	8d	8r
=42	=42	=42	=42
2E-	8G	8e-	2ee- 2e- 2G
.	8G	8B-	.
.	8G	8B-	.
.	8G	8B-	.
2D-	8r	8r	4.e-
.	8G	8B-	.
.	8G	8B-	.
.	8G	8B-	8e-
=43	=43	=43	=43
2C-	8r	8r	8.e-
.	8A-	8c-	.
.	.	.	16d
.	8A-	8c-	8e-
.	8A-	8c-	8e-
2BB-	8r	8r	2e-
.	8G	8d-	.
.	8G	8d-	.
.	8G	8d-	.
=44	=44	=44	=44
2AA-	8r	8r	8.e-
.	8A-	8c-	.
.	.	.	16d
.	8A-	8c-	8e-
.	8A-	8c-	8e-
2GG-	8r	8r	2e-
.	8E-	8B-	.
.	8E-	8B-	.
.	8E-	8B-	.
=45	=45	=45	=45
1FF	1C	[1A	8.e-
.	.	.	16d
.	.	.	8e-
.	.	.	8e-
.	.	.	4.e-
.	.	.	8e
=46	=46	=46	=46
8.EE	2E	2.A]	2c
16DD#	.	.	.
8EE	.	.	.
8EE	.	.	.
2EE	8.E	.	[2B
.	16D#	.	.
.	8E	4G#	.
.	8E	.	.
=47	=47	=47	=47
8.EE	2E	2.c	4B]
16DD#	.	.	.
8EE	.	.	4A
8EE	.	.	.
2EE	8.E	.	[2d
.	16D#	.	.
.	8E	4B	.
.	8E	.	.
=48	=48	=48	=48
8.EE	2E	[3..e	4d]
16DD#	.	.	.
8EE	.	.	4c
8EE	.	.	.
[2EE	8.E	.	4f
.	.	24e]	.
.	.	4d	.
.	16D#	.	.
.	8E	.	4e
.	8E	8c	.
=49	=49	=49	=49
1EE]	8.F#	2c	2d#
.	16E	.	.
.	8F#	.	.
.	8F#	.	.
.	8.G#	2B	2d
.	16F#	.	.
.	8G#	.	.
.	8G#	.	.
=50	=50	=50	=50
8AA	8A	8A	8c
8B	8dd	8ff	8gg#
8c	8cc	8ee	8aa
8G#	8b	8dd	8ff
8A	8e	8cc	8ee
8D	8f	8b	8dd
8E	8e	8a	8cc
8E	8e	8g#	8b
=51	=51	=51	=51
2r	2r	2r	1b-
2E	2G	2c#	.
=52	=52	=52	=52
8F	8A	8d	8a
8D	8B	8f	8g#
8C	8c	8e	8a
8BB	8G#	8d	8f
8C	8A	8c	8e
8D	4.r	8B	8d
8E	.	8A	8c
8EE	.	8G#	8B
=53	=53	=53	=53
1r	2a	1r	1r
.	4.A	.	.
.	8A	.	.
=54	=54	=54	=54
8r	8.A	2b-	1r
8D	.	.	.
.	16G#	.	.
8C#	8A	.	.
8D	8A	.	.
8r	2A	4.B-	.
8F	.	.	.
8E	.	.	.
8D	.	8B-	.
=55	=55	=55	=55
8r	1G	8.B-	2cc#
8E	.	.	.
.	.	16A	.
8D#	.	8B-	.
8E	.	8B-	.
8r	.	2B-	4.c#
8G	.	.	.
8F	.	.	.
8E	.	.	8c#
=56	=56	=56	=56
2d	8F	4A	4d
.	8d	.	.
.	8e	2.r	2.r
.	8f	.	.
4.D	8r	.	.
.	8f	.	.
.	8e	.	.
8D	8d	.	.
=57	=57	=57	=57
8.D	8r	2ee-	1r
.	8g	.	.
16C#	.	.	.
8D	8f#	.	.
8D	8g	.	.
2D	8r	4.e-	.
.	8b-	.	.
.	8a	.	.
.	8g	8e-	.
=58	=58	=58	=58
1C	8r	8.e-	2ff#
.	8a	.	.
.	.	16d	.
.	8g#	8e-	.
.	8a	8e-	.
.	8r	2e-	4.f#
.	8cc	.	.
.	8b-	.	.
.	8a	.	8f#
=59	=59	=59	=59
4BB-	24r	4d	4g
.	24d	.	.
.	24g	.	.
.	24b-	.	.
.	24b-	.	.
.	24b-	.	.
8r	8b-	6..r	2ddd
8B-	3..r	.	.
4.G	.	.	.
.	.	24g	.
.	.	24b-	.
.	.	24dd	.
.	.	24dd	.
.	.	24dd	.
.	.	8dd	16ccc
.	.	.	16bb-
8B-	.	8r	16aa
.	.	.	16gg
.	24r	.	.
=60	=60	=60	=60
4.c	24r	4r	8ff
.	24G	.	.
.	24B-	.	.
.	24e	.	8ee
.	24e	.	.
.	24e	.	.
.	8e	2gg	6..r
8E	3..r	.	.
4.C	.	.	.
.	.	.	24c
.	.	.	24g
.	.	.	24b-
.	.	.	24b-
.	.	.	24b-
.	.	16ff	8b-
.	.	16ee	.
8E	.	16dd	8r
.	.	16cc	.
.	24r	.	.
=61	=61	=61	=61
4.F	24r	8b-	4r
.	24F	.	.
.	24c	.	.
.	24f	8a	.
.	24f	.	.
.	24f	.	.
.	8f	6..r	2ccc
8A	3..r	.	.
4.F	.	.	.
.	.	24f	.
.	.	24a	.
.	.	24cc	.
.	.	24cc	.
.	.	24cc	.
.	.	8cc	16bb-
.	.	.	16aa
8A	.	8r	16gg
.	.	.	16ff
.	24r	.	.
=62	=62	=62	=62
4.B-	24r	4r	8ee
.	24F	.	.
.	24B-	.	.
.	24d	.	8dd
.	24d	.	.
.	24d	.	.
.	8d	2ff	6..r
8d	3..r	.	.
4.B-	.	.	.
.	.	.	24B-
.	.	.	24d
.	.	.	24f
.	.	.	24f
.	.	.	24f
.	.	16ee	8f
.	.	16dd	.
8D	.	16cc	8r
.	.	16b-	.
.	24r	.	.
=63	=63	=63	=63
4.E	24r	8a	4r
.	24G	.	.
.	24B-	.	.
.	24c#	8g	.
.	24c#	.	.
.	24c#	.	.
.	8c#	2.r	2bb-
8G	6r	.	.
4.D	.	.	.
.	24G	.	.
.	24B-	.	.
.	24d	.	.
.	24d	.	.
.	24d	.	.
.	8d	.	4b-
8G	8r	.	.
=64	=64	=64	=64
4.C#	24r	4r	4a
.	24G	.	.
.	24e	.	.
.	24a	.	.
.	24a	.	.
.	24a	.	.
.	8a	2gg	2eee
8E	6r	.	.
4.AA	.	.	.
.	24A	.	.
.	24c#	.	.
.	24e	.	.
.	24e	.	.
.	24e	.	.
.	8e	4cc#	4gg
8A	8r	.	.
=65	=65	=65	=65
4d	8r	8dd	8ff#
.	8d	8a	8ff
8c#	8g	8b-	8ee
8c	4a	4f#	8ee-
4B	.	.	16dd
.	.	.	16cc#
.	4d	4g	16dd
.	.	.	16cc#
4B-	.	.	16dd
.	.	.	16ff
.	16c#	8g#	16ee
.	16d	.	16dd
=66	=66	=66	=66
4A	4e	4a	24r
.	.	.	24cc#
.	.	.	24ee
.	.	.	24aa
.	.	.	24aa
.	.	.	24aa
8r	6..r	8r	8aa
16.f	.	16.aa	2r
32d	.	32ff	.
4c#	.	4ee	.
.	24c#	.	.
.	24e	.	.
.	24a	.	.
.	24a	.	.
.	24a	.	.
4r	8a	8r	.
.	8r	16.a	16.ff
.	.	32f	32dd
=67	=67	=67	=67
[1AA	24r	6..e	4cc#
.	24C#	.	.
.	24E	.	.
.	24A	.	.
.	24A	.	.
.	24A	.	.
.	[2.A	.	6..r
.	.	24A	.
.	.	24c#	.
.	.	24e	.
.	.	24e	.
.	.	24e	.
.	.	2e 2c#	.
.	.	.	24c#
.	.	.	24e
.	.	.	24a
.	.	.	24a
.	.	.	24a
.	.	.	8a
.	.	.	8a
=68	=68	=68	=68
1AA_	24A]	6..f 6..d	[2b-
.	24D	.	.
.	24F	.	.
.	24B-	.	.
.	24B-	.	.
.	24B-	.	.
.	[2.B-	.	.
.	.	24B-	.
.	.	24d	.
.	.	24f	.
.	.	24f	.
.	.	24f	.
.	.	2f 2d	24b-]
.	.	.	24d
.	.	.	24f
.	.	.	24b-
.	.	.	24b-
.	.	.	24b-
.	.	.	8b-
.	.	.	8b-
=69	=69	=69	=69
2.AA_	24B-]	6..e 6..G	[2cc#
.	24G	.	.
.	24c#	.	.
.	24e	.	.
.	24e	.	.
.	24e	.	.
.	[3..e	.	.
.	.	24c#	.
.	.	24e	.
.	.	24g	.
.	.	24g	.
.	.	24g	.
.	.	4.g 4.A	24cc#]
.	.	.	24e
.	.	.	24g
.	.	.	24cc#
.	.	.	24cc#
.	.	.	24cc#
24AA]	.	.	8cc#
24C#	.	.	.
24E	24e]	.	.
24A	8r	8r	8cc#
24A	.	.	.
24A	.	.	.
=70	=70	=70	=70
2D	8r	8r	2dd
.	8F	8A	.
.	8F	8A	.
.	8F	8A	.
2C	8r	8r	4.d
.	8F	8A	.
.	8F	8A	.
.	8F	8A	8d
=71	=71	=71	=71
2BB-	8r	8r	8.d
.	8F	8B-	.
.	.	.	16c#
.	8F	8B-	8d
.	8F	8B-	8d
2AA	8r	8r	4.d
.	8A	8f	.
.	8A	8f	.
.	8A	8d	8ff
=72	=72	=72	=72
2GG	8r	8r	[6..ff
.	8B-	8d	.
.	8B-	8c#	.
.	.	.	48ff]
.	.	.	16ee
.	8B-	8e	16dd
.	.	.	16cc#
2AA	8r	8r	4b-
.	8E	8c#	.
.	8E	8c#	8a
.	8E	8c#	8g
=73	=73	=73	=73
4DD	4D	8d	8f
.	.	8g	8b-
2.r	4.r	8f	8a
.	.	8e	8g#
.	.	8f	4a
.	8e	8g	.
.	8d	8f	4r
.	8c#	8e	.
=74	=74	=74	=74
8r	8d	8d	2ddd
8d	8f	8a	.
8d	8f	8a	.
8d	8f	8a	.
8r	8r	8r	4.dd
8c	8f#	8a	.
8c	8f#	8a	.
8c	8f#	8a	8dd
=75	=75	=75	=75
8r	8r	8r	8.dd
8B	8g	8d	.
.	.	.	16cc#
8B	8g	8d	8dd
8B	8g	8d	8dd
8r	8r	8r	4.dd
8B-	8g#	8ff	.
8B-	8g#	8ff	.
8B-	8g#	8dd	8fff
=76	=76	=76	=76
2A	4g#	[6..dd	[6..fff
.	4a	.	.
.	.	48dd]	48fff]
.	.	16cc#	16eee
.	.	16ff	16ddd
.	.	16ee	16ccc#
2r	8r	4gg	4bb-
.	8A	.	.
.	8B	8ff	8aa
.	8c#	8ee	[8gg
=77	=77	=77	=77
3..r	8d	8a	16gg]
.	.	.	16ff
.	8G	16b-	16ee
.	.	16g	16bb-
.	8A	16g	16bb-
.	.	16f	16aa
.	8A	16e	16cc#
.	.	16g	16ee
.	4d	4f	4dd
24r	.	.	.
8A	.	.	.
8F	4r	4r	4r
8D	.	.	.
=78	=78	=78	=78
8AA	4.r	4.A	4.A
8A	.	.	.
8A	.	.	.
8A	8f	8dd	8aa
8A	8.e	4dd	8.gg
8A	.	.	.
.	16f	.	16aa
8A	8g	8cc#	8bb-
8A	8g	8b-	8cc#
=79	=79	=79	=79
8A	8f	8a	8dd
8c#	8e	8a	8ee
8d	8d	8ee	8gg
8G#	4r	8dd	8ff
8A	.	4cc#	4ee
4.r	16a	.	.
.	16g#	.	.
.	16a	4r	4r
.	16g#	.	.
.	16a	.	.
.	16g#	.	.
=80	=80	=80	=80
8AA	4.a	4.A	4.A
8A	.	.	.
8A	.	.	.
8A	8f	8aa	8ddd
8A	8.e	8.gg	4ddd
8A	.	.	.
.	16f	16aa	.
8A	8g	8bb-	8ccc#
8A	8g	8cc#	8bb-
=81	=81	=81	=81
8A	8f	8dd	8aa
8c#	4a	8ee	8gg
8d	.	8ee	8gg
8G#	8b	8dd	8ff
4A	4e	4cc#	16ee
.	.	.	16gg#
.	.	.	16aa
.	.	.	16gg#
4r	4r	8r	16aa
.	.	.	16gg#
.	.	16ff	16aa
.	.	16dd	16ff
=82	=82	=82	=82
2..r	4.r	16cc#	8ee
.	.	16g#	.
.	.	16a	2..r
.	.	16g#	.
.	.	16a	.
.	.	16g#	.
.	16f	16a	.
.	16d	16f	.
.	16c#	8e	.
.	16G#	.	.
.	16A	4.r	.
.	16G#	.	.
.	16A	.	.
.	16G#	.	.
16F	16A	.	.
16D	16F	.	.
=83	=83	=83	=83
16C#	8E	2r	2r
16GG#	.	.	.
16AA	4.r	.	.
16GG#	.	.	.
16AA	.	.	.
16GG#	.	.	.
16AA	.	.	.
16FF	.	.	.
4.EE	4.e	4.gg	4.bb- 4.cc# 4.e 4.G
8E	8G	[8B-	8c#
=84	=84	=84	=84
8F	8F	8B-]	8d
8F	8F	8A	8d
8r	8r	8r	8r
8F#	8F#	8A	8d
8r	8r	8r	8r
8G	8G	8B-	8e-
8r	8r	8r	8r
8A	8c	8e-	8f#
=85	=85	=85	=85
8c	8f#	8e-	8a
8B-	8g	8d	8g
8r	4r	8r	8r
8G#	.	8B	8e
4A	2e	4c	8f
.	.	.	8f#
4B	.	4d	8g
.	.	.	8g#
=86	=86	=86	=86
8d	8g#	8f	8b
8c	8a	8e	8a
8r	8r	4r	8r
8C#	8e	.	8.a
4D	4f	[2a	.
.	.	.	8b-
.	.	.	8b
4E	4g	.	.
.	.	.	8cc
.	.	.	[16cc#
=87	=87	=87	=87
8F	8a	8a]	16cc#]
.	.	.	16dd
8C#	8g	4a	16ff
.	.	.	16ee
8D	8f	.	16gg
.	.	.	16ff
8E	8c#	4a	16aa
.	.	.	16gg
8F	4.d	.	16bb-
.	.	.	16aa
8G	.	8g	16ccc
.	.	.	16bb-
8B-	.	8dd	16aa
.	.	.	16gg
8G	8e	8b-	16ff
.	.	.	16ee
=88	=88	=88	=88
4A	4A	4f	4dd
2.r	8.a	8e	8cc#
.	.	4.r	4.r
.	16g#	.	.
.	4..g#	.	.
.	.	8dd	8ee
.	.	8dd	8ee
.	32f#	.	.
.	32g#	.	.
=89	=89	=89	=89
4r	4a	8.cc#	8.ee
.	.	16dd	16ff
8.AA	2r	8cc#	8ee
.	.	4.r	4.r
16BB-	.	.	.
4..BB-	.	.	.
.	8d	8ff	8ddd
.	8f	8dd	8gg#
32AA	.	.	.
32BB-	.	.	.
=90	=90	=90	=90
8AA	4f	4dd	4gg#
8AA	.	.	.
8A	8e	8cc#	8aa
8G	3..r	8r	4r
4G	.	[2A	.
.	.	.	8d
4F#	.	.	8dd
.	.	.	8cc
.	24r	.	.
=91	=91	=91	=91
8r	[3..d	4A]	4cc
8GG	.	.	.
8G	.	8G	8b-
8F	.	8A	8a
2E	.	[2B	4a
.	24d]	.	.
.	8E	.	.
.	8e	.	4g#
.	8d	.	.
=92	=92	=92	=92
[2..AA	4d	8B]	[3..g
.	.	8e	.
.	8c#	8ee	.
.	8B	8dd	.
.	4A	4dd	.
.	.	.	24g]
.	.	.	8ee
.	4e	8cc#	8aa
16AA]	.	8a	8gg
32BB	.	.	.
32C#	.	.	.
=93	=93	=93	=93
8D	8d	8a	32ee
.	.	.	32ff
.	.	.	16r
8r	8r	8r	32cc#
.	.	.	32dd
.	.	.	16r
8GG	8c#	8e	32a
.	.	.	32b-
.	.	.	16r
8r	8r	8r	32f#
.	.	.	32g
.	.	.	16r
8FF	8A	4d	8.a
8GG	8G	.	.
.	.	.	16b-
8AA	8F	4A	8d
8AA	8E	.	8c#
=94	=94	=94	=94
4DD	16r	16r	4d
.	16F	16A	.
.	16F	16d	.
.	16F	16d	.
4r	16F	16d	4r
.	16F	16d	.
.	16F	16d	.
.	16F	16d	.
4FF	16r	16r	4dd
.	16D	16A	.
.	16A	16d	.
.	16A	16d	.
4r	16A	16d	16cc#
.	16A	16d	16dd
.	16A	16d	16ff
.	16A	16d	16ee
=95	=95	=95	=95
4GG	16r	16r	8cc#
.	16D	16B-	.
.	16B-	16d	8dd
.	16B-	16d	.
4r	16B-	16d	4r
.	16B-	16d	.
.	16B-	16d	.
.	16B-	16d	.
4AA	16r	16r	8dd
.	16F	16A	.
.	16d	16f	4aa
.	16d	16f	.
4r	16d	16f	.
.	16d	16f	.
.	16d	16f	16gg
.	16d	16f	16ff
=96	=96	=96	=96
4BB-	16r	16r	8ee
.	16F	16d	.
.	16d	16f	8dd
.	16d	16f	.
4r	16d	16f	4r
.	16d	16f	.
.	16d	16f	.
.	16d	16f	.
4F	16r	16r	8dd
.	16A	16d	.
.	16f	16a	4ddd
.	16f	16a	.
4r	16f	16a	.
.	16f	16a	.
.	16d	16a	8ff
.	16d	16a	.
=97	=97	=97	=97
4G	16r	16r	8ee-
.	16B-	16g	.
.	16e-	16b-	4gg
.	16e-	16b-	.
4r	16e-	16b-	.
.	16e-	16b-	.
.	16d	16g	8bb-
.	16d	16g	.
4A	16r	16r	8bb-
.	16c#	16e	.
.	16d	16f	4aa
.	16d	16f	.
4AA	16d	16f	.
.	16d	16f	.
.	16e	16g	8cc#
.	16e	16g	.
=98	=98	=98	=98
4D	16d	16f	4dd
.	16g	16b-	.
.	16f	16a	.
.	16e	16g#	.
4r	16f	16a	4r
.	16e	16g	.
.	16d	16f	.
.	16c#	16e	.
4F	16d	8d	6dd
.	16A	.	.
.	16d	8d	.
.	.	.	24cc#
.	16A	.	.
.	.	.	24dd
4r	16F	8a	24ff
.	.	.	24ee
.	16A	.	.
.	.	.	24dd
.	16d	8f	24aa
.	.	.	24gg
.	16A	.	.
.	.	.	24ff
=99	=99	=99	=99
4G	16G	8r	8ee
.	16B-	.	.
.	16d	8e	8dd
.	16B-	.	.
4r	16G	8b-	4r
.	16B-	.	.
.	16d	8g	.
.	16B-	.	.
4A	16A	8r	24d
.	.	.	24cc#
.	16d	.	.
.	.	.	24dd
.	16f	8d	24ee-
.	.	.	24ee
.	16d	.	.
.	.	.	24ff
4r	16A	8dd	24ff#
.	.	.	24gg
.	16d	.	.
.	.	.	24gg#
.	16f	8a	24aa
.	.	.	24gg
.	16d	.	.
.	.	.	24ff
=100	=100	=100	=100
4B-	16B-	8r	8ee
.	16d	.	.
.	16f	8d	8dd
.	16d	.	.
4r	16B-	8dd	4r
.	16d	.	.
.	16f	8b-	.
.	16d	.	.
4F	16A	8r	24d
.	.	.	24f
.	16d	.	.
.	.	.	24a
.	16f	8a	24dd
.	.	.	24ff
.	16d	.	.
.	.	.	24aa
4r	16A	8ff	24ddd
.	.	.	24ccc
.	16d	.	.
.	.	.	24bb-
.	16f	8dd	24aa
.	.	.	24gg
.	16d	.	.
.	.	.	24ff
=101	=101	=101	=101
4G	16B-	8r	24ee
.	.	.	24ff
.	16d	.	.
.	.	.	24dd#
.	16e	8B-	24ee
.	.	.	24gg
.	16d	.	.
.	.	.	24ff#
4r	16B-	8b-	24gg
.	.	.	24ff
.	16d	.	.
.	.	.	24ee
.	16e	8g	24dd
.	.	.	24cc
.	16d	.	.
.	.	.	24b-
8A	8d	8f	16a
.	.	.	16aa
8B-	4B-	4d	32gg
.	.	.	32ff
.	.	.	32ee
.	.	.	32dd
8G	.	.	8.ee
8A	16A	8c#	.
.	16G	.	32dd
.	.	.	32ee
=102	=102	=102	=102
8D	4F	4d	4dd
4C	.	.	.
.	4F#	4e-	2.r
16.BB-	.	.	.
32AA	.	.	.
8BB-	8G	8d	.
8AA	8c	8f#	.
8BB-	8d	8g	.
8F#	8e-	8a	.
=103	=103	=103	=103
8G	8d	8b-	1r
8F	8a-	8b	.
8E	8g	8cc	.
8G	8b-	8cc#	.
8F	8a	16.dd	.
.	.	32a	.
8G	16.g	16.b-	.
.	32e	32g	.
8A	8d	8f	.
8AA	8c#	8e	.
=104	=104	=104	=104
8D	8d	4d	4dd
4c	4a	.	.
.	.	4e-	4ee-
16.B-	16.g	.	.
32A	32f#	.	.
8B-	8g	8d	8dd
8A	8c	8f#	8ff#
8B-	8d	8g	8gg
8F#	8e-	8a	8aa
=105	=105	=105	=105
8G	8d	8b-	8bb-
8F	8a-	8b	8bb
8E	8g	8cc	8ccc
8G	8b-	8cc#	8ccc#
8F	8a	16.dd	16.ddd
.	.	32a	32aa
8G	16.g	16.b-	16.bb-
.	32e	32g	32gg
8A	8d	8f	8ff
8AA	8c#	8e	8ee
=106	=106	=106	=106
8D	8d	24d	8dd
.	.	24f	.
.	.	24a	.
2..r	8r	24a	8r
.	.	24a	.
.	.	24a	.
.	8g	24a	8cc#
.	.	24a	.
.	.	24a	.
.	8g	24a	8cc#
.	.	24a	.
.	.	24a	.
.	8f	24a	8dd
.	.	24a	.
.	.	24a	.
.	8f	24a	8dd
.	.	24a	.
.	.	24a	.
.	8c#	24a	8ee
.	.	24a	.
.	.	24a	.
.	8c#	24a	8ee
.	.	24a	.
.	.	24a	.
=107	=107	=107	=107
1r	8d	24a	8ff
.	.	24dd	.
.	.	24dd	.
.	8c	24dd	8ff#
.	.	24dd	.
.	.	24dd	.
.	8B	24dd	8gg
.	.	24dd	.
.	.	24dd	.
.	8B-	24dd	8gg#
.	.	24dd	.
.	.	24dd	.
.	8A	24dd	16.aa
.	.	24dd	.
.	.	24dd	.
.	.	.	32ff#
.	8G	24dd	16.bb-
.	.	24dd	.
.	.	24dd	.
.	.	.	32gg
.	8A	24dd	8ff
.	.	24ee	.
.	.	24dd	.
.	8A	24cc#	8ee
.	.	24b	.
.	.	24cc#	.
=108	=108	=108	=108
4r	24D	8dd	4dd
.	24F	.	.
.	24A	.	.
.	24A	8r	.
.	24A	.	.
.	24A	.	.
8G	24A	8c#	2.r
.	24A	.	.
.	24A	.	.
8G	24A	8c#	.
.	24A	.	.
.	24A	.	.
8F	24A	8d	.
.	24A	.	.
.	24A	.	.
8F	24A	8d	.
.	24A	.	.
.	24A	.	.
8C#	24A	8e	.
.	24A	.	.
.	24A	.	.
8C#	24A	8e	.
.	24A	.	.
.	24A	.	.
=109	=109	=109	=109
8D	24A	8f	1r
.	24d	.	.
.	24d	.	.
8C	24d	8f#	.
.	24d	.	.
.	24d	.	.
4r	24d	4r	.
.	24d	.	.
.	24d	.	.
.	24d	.	.
.	24d	.	.
.	24d	.	.
8BB	24d	8g	.
.	24d	.	.
.	24d	.	.
8BB-	24d	8g#	.
.	24d	.	.
.	24d	.	.
4r	24d	4r	.
.	24d	.	.
.	24d	.	.
.	24d	.	.
.	24d	.	.
.	24d	.	.
=110	=110	=110	=110
8AA	24d	16.a	2r
.	24d	.	.
.	24d	.	.
.	.	32f	.
8GG	24d	16.b-	.
.	24d	.	.
.	24d	.	.
.	.	32g	.
8AA	24d	8f	.
.	24e	.	.
.	24d	.	.
8AA	24c#	8e	.
.	24B	.	.
.	24c#	.	.
4DD	4d	4d	24r
.	.	.	24dd
.	.	.	24ff
.	.	.	24aa
.	.	.	24aa
.	.	.	24aa
8r	8r	8r	8aa
8A	16.e	16.gg	8r
.	32c#	32ee	.
=111	=111	=111	=111
4D	4d	4dd	24r
.	.	.	24d
.	.	.	24f
.	.	.	24a
.	.	.	24a
.	.	.	24a
8r	8r	8r	8a
8AA	16.E	16.g	6r
.	32C#	32e	.
4.DD	8D	8d	.
.	.	.	24A
.	.	.	24d
.	8D	8A	24f
.	.	.	24f
.	.	.	24f
.	8D	8A	8f
8D	8r	8r	8r
=112a	=112a	=112a	=112a
4.D	8r	8r	24r
.	.	.	24B
.	.	.	24f
.	8F	8B	24a-
.	.	.	24a-
.	.	.	24a-
.	8F	8B	8a-
8F	8A-	8d	6r
4.F	8r	8r	.
.	.	.	24A-
.	.	.	24B-
.	8B-	8a-	24d
.	.	.	24d
.	.	.	24d
.	8B-	8a-	8d
8BB-	8A-	8d	8r
=112b	=112b	=112	=112b
8E-	8r	8r	24r
.	.	.	24A
.	.	.	24c
8D	8D	8A	24f#
.	.	.	24f#
.	.	.	24f#
8C	8D	8A	8f#
8D	4r	4r	6r
4.BB	.	.	.
.	.	.	24G
.	.	.	24d
.	8D	8G	24g
.	.	.	24g
.	.	.	24g
.	8D	8G	8g
8D	8r	8r	8r
=113	=113	=113	=113
8E	8r	8r	24r
.	.	.	24G#
.	.	.	24d
8D	8E	8B	24g#
.	.	.	24g#
.	.	.	24g#
8C#	8E	8B	8g#
8D	4r	4r	6r
4.AA	.	.	.
.	.	.	24A
.	.	.	24d
.	8F	8d	24a
.	.	.	24a
.	.	.	24a
.	8F	8d	8a
8F	8r	8r	8r
=114	=114	=114	=114
4.GG	8r	8r	24r
.	.	.	24G
.	.	.	24e-
.	8G	8e-	24b-
.	.	.	24b-
.	.	.	24b-
.	8G	8e-	8b-
8E-	8B-	8g	4r
8C#	8A	4g	.
8AA	8c#	.	8a
8BB-	8d	4f	8r
8FF	8A	.	8dd
=115	=115	=115	=115
8GG	8B-	8e	8r
8BB-	8G	8d	8e
8AA	8A	4c#	8r
8AA	8G	.	8a
4D	4F	24d	8d
.	.	24f	.
.	.	24a	.
.	.	24d	8f
.	.	24f	.
.	.	24a	.
8r	8r	24d	8a
.	.	24f	.
.	.	24a	.
8A	8A	24e	16cc#
.	.	24g	.
.	.	.	32b
.	.	24a	.
.	.	.	32cc#
=116	=116	=116	=116
4D	4A	24d	8dd
.	.	24f	.
.	.	24a	.
.	.	24d	8a
.	.	24f	.
.	.	24a	.
8r	8r	24d	8ff
.	.	24f	.
.	.	24a	.
8AA	8c#	24e	16ee
.	.	24g	.
.	.	.	32dd
.	.	24a	.
.	.	.	32ee
4D	4d	24d	8dd
.	.	24f	.
.	.	24a	.
.	.	24d	8ff
.	.	24f	.
.	.	24a	.
8r	8r	24d	8aa
.	.	24f	.
.	.	24a	.
8A	8a	24e	8ccc# 8ee 8a
.	.	24g	.
.	.	24a	.
=117	=117	=117	=117
4D	4a	4f 4A	4ddd 4dd 4d
2.r	2.r	2.r	2.r
==	==	==	==
*-	*-	*-	*-
!!!RWG1: This file contains only pitch and duration data.
!!!RWG2: Transposing instruments are not transposed.
!!!RWG3: Spines may have incompatible meters.
!!!RWG4: Durations of rests and tied notes may be interpreted.
!!!RWG: Key is interpreted using the Humdrum key tool.
!!!AFT: stage1
!!!END: 1997/04/15
!!!KEY: 504367573
!!!EMD: Converted from MuseData to Humdrum Dec 16, 2000, by Andreas Kornstaedt using muse2kern.
!!!EMD: Manual editing by Craig Sapp, Nov 2001
